X: 4
T: The Old Bush
R: reel
M: 4/4
L: 1/8
K: Dmix
"Am(D)"A2GA "C"cA~A2|"D"d^cde fde=c|"Am(D)"A2GA "C"cA~A2|"D"dfed cAdc|
"Am(D)"A2GA "C"cA~A2|"D"d^cde ~f3g|afge fde^c|1 dfed "C"cAdc:|2 dfed cA~A2||
|:"C"eg~g2 edcd|egge c3d|eg~g2 "D"afge|dfed "Am"cA~A2|
"C"eg~g2 ag~g2|egge "D"defg|afge fde^c|1 dfed "Am"cA~A2:|2 dfed cAdc||

%%newpage
%% header "Pizza Wizards - Music For A Found Harmonium / Acorn Stomp		$P"
%% scale 0.7

